packages/kaspersky-hexa-ui-icons/src/iconsSVGs/16/SecurityLive.svg

<svg width="16" height="16" viewBox="0 0 16 16" fill="none" xmlns="http://www.w3.org/2000/svg">
<path fill-rule="evenodd" clip-rule="evenodd" d="M5.60425 2.02644C5.85809 1.7726 6.26964 1.7726 6.52348 2.02644L9.44427 4.94722L11.0038 3.38765C11.2577 3.13381 11.6692 3.13381 11.9231 3.38765C12.1769 3.64149 12.1769 4.05304 11.9231 4.30689L10.3635 5.86646L13.6631 9.16609C13.917 9.41993 13.917 9.83149 13.6631 10.0853L13.2992 10.4492C12.0619 11.6866 10.3971 12.236 8.78013 12.0973V12.8639H10.7968C11.1558 12.8639 11.4468 13.1549 11.4468 13.5139C11.4468 13.8729 11.1558 14.1639 10.7968 14.1639H5.46346C5.10448 14.1639 4.81346 13.8729 4.81346 13.5139C4.81346 13.1549 5.10448 12.8639 5.46346 12.8639H7.48013V11.8473L7.48032 11.8313C6.66144 11.5613 5.89167 11.1006 5.24034 10.4492C3.01494 8.22383 3.01494 4.61575 5.24034 2.39035L5.60425 2.02644ZM6.06531 3.40674C4.44246 5.13076 4.47388 7.8443 6.15958 9.52999C7.84528 11.2157 10.5588 11.2471 12.2828 9.62426L6.06531 3.40674Z" fill="black"/>
</svg>

<svg xmlns="http://www.w3.org/2000/svg" width="16" height="16" fill="none" viewBox="0 0 16 16"><path fill="#000" fill-rule="evenodd" d="M5.604 2.0265a.65.65 0 0 1 .9193 0l2.9208 2.9208 1.5596-1.5596a.65.65 0 1 1 .9192.9192l-1.5595 1.5596L13.663 9.166a.65.65 0 0 1 0 .9193l-.3639.3639c-1.2374 1.2373-2.9022 1.7867-4.5191 1.6481v.7666h2.0166a.65.65 0 1 1 0 1.3H5.4633a.65.65 0 0 1 0-1.3H7.48v-1.0167l.0002-.0159c-.819-.2701-1.5887-.7308-2.24-1.3821-2.2254-2.2254-2.2254-5.8335 0-8.059zm.4612 1.3803c-1.6229 1.724-1.5915 4.4375.0942 6.1232s4.3993 1.7171 6.1233.0943z"/></svg>
